X:1
T:Enrico
T:(Double Star)
C:Hornpipe
Q:1/4=120
M:4/4
L:1/8   
K:G
P:A
D2|G2BA GFGE|DEDC B,2D2|G2AB cBcB|A2d2d2D2|
G2BA GFGE|DEDCB,2D2|E2cB AGAF|G2G2G2|]
P:B
Bc|d2dc BcBA|GAGFE2E2|cdcB ABAG|FGFED2 (3DEF|
G2G2FAFD|G2G2FAFD|G2cB AGAF|G2G2G2|]
